icons/versions-16.svg

<svg width="16" height="16" viewBox="0 0 16 16" fill="none" xmlns="http://www.w3.org/2000/svg">
<path fill-rule="evenodd" clip-rule="evenodd" d="M7.75 14C6.7835 14 6 13.2165 6 12.25V3.75C6 2.7835 6.7835 2 7.75 2H14.25C15.2165 2 16 2.7835 16 3.75V12.25C16 13.2165 15.2165 14 14.25 14H7.75ZM7.5 12.25C7.5 12.3881 7.61193 12.5 7.75 12.5H14.25C14.3881 12.5 14.5 12.3881 14.5 12.25V3.75C14.5 3.61193 14.3881 3.5 14.25 3.5H7.75C7.61193 3.5 7.5 3.61193 7.5 3.75V12.25ZM4.8992 3.50813C5.10661 3.86667 4.98409 4.32547 4.62554 4.53288C4.54886 4.57723 4.5 4.6583 4.5 4.74989V11.2499C4.5 11.3415 4.54886 11.4225 4.62554 11.4669C4.98409 11.6743 5.10661 12.1331 4.8992 12.4917C4.6918 12.8502 4.233 12.9727 3.87445 12.7653C3.35334 12.4639 3 11.8986 3 11.2499V4.74989C3 4.1012 3.35334 3.53592 3.87446 3.23447C4.233 3.02706 4.6918 3.14958 4.8992 3.50813ZM1.62554 5.53288C1.98409 5.32547 2.10661 4.86667 1.8992 4.50813C1.6918 4.14958 1.233 4.02706 0.874456 4.23447C0.353336 4.53592 0 5.1012 0 5.74989V10.2499C0 10.8986 0.353336 11.4639 0.874456 11.7653C1.233 11.9727 1.6918 11.8502 1.8992 11.4917C2.10661 11.1331 1.98409 10.6743 1.62554 10.4669C1.54886 10.4225 1.5 10.3415 1.5 10.2499V5.74989C1.5 5.6583 1.54886 5.57723 1.62554 5.53288Z" fill="#24292E"/>
</svg>

<svg xmlns="http://www.w3.org/2000/svg" width="16" height="16" viewBox="0 0 16 16"><path fill-rule="evenodd" d="M7.75 14A1.75 1.75 0 016 12.25v-8.5C6 2.784 6.784 2 7.75 2h6.5c.966 0 1.75.784 1.75 1.75v8.5A1.75 1.75 0 0114.25 14h-6.5zm-.25-1.75c0 .138.112.25.25.25h6.5a.25.25 0 00.25-.25v-8.5a.25.25 0 00-.25-.25h-6.5a.25.25 0 00-.25.25v8.5zM4.9 3.508a.75.75 0 01-.274 1.025.25.25 0 00-.126.217v6.5a.25.25 0 00.126.217.75.75 0 01-.752 1.298A1.75 1.75 0 013 11.25v-6.5c0-.649.353-1.214.874-1.516a.75.75 0 011.025.274zM1.625 5.533a.75.75 0 10-.752-1.299A1.75 1.75 0 000 5.75v4.5c0 .649.353 1.214.874 1.515a.75.75 0 10.752-1.298.25.25 0 01-.126-.217v-4.5a.25.25 0 01.126-.217z"/></svg>
